packages/icons/src/calendar-fill.svg

<svg width="24" height="24" viewBox="0 0 24 24" fill="none" xmlns="http://www.w3.org/2000/svg">
<path d="M18 4H19C19.7956 4 20.5587 4.31607 21.1213 4.87868C21.6839 5.44129 22 6.20435 22 7V8H2V7C2 6.20435 2.31607 5.44129 2.87868 4.87868C3.44129 4.31607 4.20435 4 5 4H6V3C6 2.73478 6.10536 2.48043 6.29289 2.29289C6.48043 2.10536 6.73478 2 7 2C7.26522 2 7.51957 2.10536 7.70711 2.29289C7.89464 2.48043 8 2.73478 8 3V4H16V3C16 2.73478 16.1054 2.48043 16.2929 2.29289C16.4804 2.10536 16.7348 2 17 2C17.2652 2 17.5196 2.10536 17.7071 2.29289C17.8946 2.48043 18 2.73478 18 3V4Z" fill="black"/>
<path fill-rule="evenodd" clip-rule="evenodd" d="M2 10H22V19C22 19.7956 21.6839 20.5587 21.1213 21.1213C20.5587 21.6839 19.7956 22 19 22H5C4.20435 22 3.44129 21.6839 2.87868 21.1213C2.31607 20.5587 2 19.7956 2 19V10ZM11 13.0006C11.0003 12.4479 11.4485 12 12.0013 12C12.5542 12 13.0025 12.4483 13.0025 13.0013C13.0025 13.5542 12.5542 14.0025 12.0013 14.0025C11.4483 14.0025 11 13.5536 11 13.0006ZM16 13.0006C16 13.5536 16.4483 14.0025 17.0013 14.0025C17.5542 14.0025 18.0025 13.5542 18.0025 13.0013C18.0025 12.4483 17.5542 12 17.0013 12C16.4485 12 16.0003 12.448 16 13.0006ZM11 17.0006C11.0003 16.4479 11.4485 16 12.0013 16C12.5542 16 13.0025 16.4483 13.0025 17.0013C13.0025 17.5542 12.5542 18.0025 12.0013 18.0025C11.4483 18.0025 11 17.5536 11 17.0006ZM16 17.0006C16.0003 16.4479 16.4485 16 17.0013 16C17.5542 16 18.0025 16.4483 18.0025 17.0013C18.0025 17.5542 17.5542 18.0025 17.0013 18.0025C16.4483 18.0025 16 17.5536 16 17.0006ZM6 13.0006C6 13.5536 6.44828 14.0025 7.00125 14.0025C7.55423 14.0025 8.0025 13.5542 8.0025 13.0013C8.0025 12.4483 7.55423 12 7.00125 12C6.44852 12 6.00034 12.448 6 13.0006ZM6 17.0006C6.00034 16.4479 6.44849 16 7.00125 16C7.55423 16 8.0025 16.4483 8.0025 17.0013C8.0025 17.5542 7.55423 18.0025 7.00125 18.0025C6.44828 18.0025 6 17.5536 6 17.0006Z" fill="black"/>
</svg>

<svg xmlns="http://www.w3.org/2000/svg" width="24" height="24" fill="none" viewBox="0 0 24 24">
  <path fill="#000" d="M18 4h1a3 3 0 0 1 3 3v1H2V7a3 3 0 0 1 3-3h1V3a1 1 0 0 1 2 0v1h8V3a1 1 0 0 1 2 0v1Z"/>
  <path fill="#000" fill-rule="evenodd" d="M2 10h20v9a3 3 0 0 1-3 3H5a3 3 0 0 1-3-3v-9Zm9 3a1.001 1.001 0 1 1 2.002.002A1.001 1.001 0 0 1 11 13Zm5 0a1.002 1.002 0 1 0 2.004 0A1.002 1.002 0 0 0 16 13Zm-5 4a1.001 1.001 0 1 1 2.002.002A1.001 1.001 0 0 1 11 17Zm5 0a1.001 1.001 0 1 1 2.002.002A1.001 1.001 0 0 1 16 17ZM6 13a1.002 1.002 0 1 0 2.004 0A1.002 1.002 0 0 0 6 13Zm0 4a1.001 1.001 0 1 1 2.002.002A1.001 1.001 0 0 1 6 17Z" clip-rule="evenodd"/>
</svg>
